addons/godot-flexbox/assets/light/JustifyContentSpaceAroundRowIcon.svg

<svg xmlns="http://www.w3.org/2000/svg" width="16" height="16" fill="none" data-wf-icon="JustifyContentSpaceAroundRowIcon" viewBox="0 0 24 24"><path fill="#474747" d="M24 0h-1.5v24H24V0ZM1.5 0H0v24h1.5V0ZM4.5 6h6v12h-6V6ZM13.5 6h6v12h-6V6Z"/></svg>

<svg data-wf-icon="JustifyContentSpaceAroundRowIcon" width="16" height="16" viewBox="0 0 24 24" fill="none" xmlns="http://www.w3.org/2000/svg"><path d="M24 0H22.5V24H24V0Z" fill="#474747"></path><path d="M1.5 0H0V24H1.5V0Z" fill="#474747"></path><path d="M4.5 6H10.5V18H4.5V6Z" fill="#474747"></path><path d="M13.5 6H19.5V18H13.5V6Z" fill="#474747"></path></svg>
